assets/mobileicons.svg

<svg width="36" height="18" viewBox="0 0 36 18" fill="none" xmlns="http://www.w3.org/2000/svg">
<path d="M9.1564 0.0896036C8.3578 0.313613 7.52361 0.963239 7.07292 1.72487C6.65385 2.42826 6.39292 3.3915 6.46408 3.98288L6.4878 4.17553L6.78827 4.14865C7.55129 4.068 8.29849 3.59758 8.84407 2.84491C9.33826 2.16393 9.67826 1.16037 9.67826 0.376335V0L9.57151 0.00448018C9.50826 0.00448018 9.32244 0.0448018 9.1564 0.0896036Z" fill="#376FE3"/>
<path d="M23.515 1.33056C23.3608 1.36192 23.1592 1.56353 23.0762 1.76514C23.005 1.94434 23.001 2.22211 23.001 9.49344V17.0425L23.0841 17.2397C23.1315 17.3472 23.2264 17.4726 23.2936 17.5219C23.5427 17.6922 23.7482 17.625 24.4954 17.1232C24.7208 16.9709 24.9106 16.8454 24.9185 16.8454C24.9264 16.8454 25.0727 16.7513 25.2427 16.6393C25.4127 16.5228 25.9424 16.1734 26.4208 15.8598C26.8992 15.5506 27.595 15.0937 27.9627 14.8517C28.3343 14.6098 28.8561 14.2693 29.1289 14.0901C30.5403 13.1672 30.9436 12.9029 31.0859 12.8133C31.1729 12.7595 31.4061 12.6072 31.5999 12.4772C32.1217 12.1323 33.5331 11.2138 33.8652 10.9988C35.5929 9.89218 35.6522 9.83842 35.6522 9.40832C35.6522 9.05887 35.5731 8.97374 34.7824 8.46748C34.4226 8.23899 34.0826 8.01499 34.0233 7.97018C33.964 7.9209 33.9047 7.88506 33.8968 7.88506C33.885 7.88506 33.7624 7.8089 33.628 7.71481C33.3552 7.52665 32.5368 6.98902 31.1254 6.07059C30.0896 5.39408 29.4175 4.9595 28.6585 4.45772C28.3659 4.26956 28.0615 4.07243 27.9864 4.02315C27.9073 3.97386 27.5594 3.74538 27.2115 3.51689C26.8636 3.2884 26.152 2.82694 25.6301 2.48645C25.1082 2.14595 24.5587 1.78306 24.4045 1.68001C23.942 1.37088 23.7324 1.28576 23.515 1.33056ZM25.4641 4.30092C26.4168 5.37168 27.8282 6.95318 28.5992 7.81786C29.3701 8.67805 29.9987 9.40832 29.9987 9.4352C29.9987 9.46208 29.5401 9.99522 28.9827 10.618C28.4213 11.2407 27.0652 12.7595 25.9661 13.996C24.8631 15.2326 23.8827 16.3302 23.7799 16.4422L23.5941 16.6393V9.4352C23.5941 2.60293 23.598 2.23108 23.6613 2.28932C23.7008 2.32516 24.5113 3.23016 25.4641 4.30092ZM25.5945 3.21671C25.808 3.36008 26.2429 3.64681 26.5592 3.8529C26.8754 4.05899 27.338 4.36364 27.5871 4.52493C27.8361 4.69069 28.2987 4.99087 28.615 5.19695C28.9313 5.40304 29.3306 5.66289 29.5045 5.77938C29.6785 5.89586 30.2794 6.28564 30.8408 6.65301C31.3982 7.01591 31.8568 7.32504 31.8568 7.34296C31.8568 7.3564 31.5406 7.72825 31.1571 8.16283L30.4533 8.9603L27.7847 5.95858C26.318 4.30988 25.1359 2.96134 25.1596 2.95686C25.1794 2.95686 25.3771 3.07335 25.5945 3.21671ZM32.8175 7.94778C33.3829 8.31964 34.1696 8.83486 34.6164 9.11711C34.8417 9.26047 35.0315 9.39488 35.0394 9.4128C35.0512 9.42624 34.8219 9.60097 34.5333 9.78913C34.2487 9.98178 33.8533 10.2416 33.6557 10.3716C33.4619 10.5015 33.2129 10.6628 33.1022 10.73C32.9954 10.7972 32.8057 10.9226 32.6831 11.0033C32.5606 11.0884 32.4459 11.1556 32.4301 11.1556C32.4143 11.1556 32.0545 10.7703 31.6354 10.2954L30.8685 9.4352L31.6275 8.57053C32.0466 8.09563 32.4064 7.70585 32.4222 7.70585C32.4419 7.70585 32.6199 7.81338 32.8175 7.94778ZM31.1571 10.6897C31.5445 11.1197 31.8568 11.4916 31.8568 11.5095C31.8568 11.5454 31.5089 11.7873 30.9475 12.1412C30.8052 12.2308 30.3901 12.5041 30.0185 12.7461C29.6508 12.988 28.8127 13.5301 28.1603 13.9557C27.508 14.3813 26.8794 14.789 26.7647 14.8697C26.6501 14.9458 26.5473 15.0085 26.5394 15.0085C26.5315 15.0085 26.3575 15.1205 26.1559 15.2594C25.6775 15.591 25.1675 15.9091 25.1517 15.8911C25.1359 15.8732 30.4217 9.90114 30.4533 9.90114C30.4573 9.90114 30.7736 10.2551 31.1571 10.6897Z" fill="#376FE3"/>
<path d="M8.74923 4.42193C8.43295 4.49809 8.04947 4.64145 7.48807 4.89234C6.70528 5.2418 6.51947 5.25076 5.83552 4.94611C4.71668 4.45329 4.25017 4.34576 3.62157 4.42641C2.32483 4.60113 1.18227 5.51957 0.569482 6.88602C0.185994 7.7507 -0.0472612 9.07683 0.00808753 10.1028C0.106925 11.8769 0.636691 13.7855 1.45111 15.2998C1.56971 15.5193 1.70413 15.7568 1.74762 15.824C1.79506 15.8912 1.87413 16.0166 1.92948 16.1062C2.10739 16.4019 2.65692 17.1322 2.85855 17.3472C3.57413 18.0909 4.25412 18.1895 5.28203 17.6922C6.01738 17.3383 6.10831 17.3159 6.81203 17.3204C7.49993 17.3204 7.56319 17.3383 8.21551 17.6519C9.08923 18.082 9.74551 18.082 10.3899 17.6609C11.0936 17.1994 12.3074 15.2371 12.7936 13.7765C12.9874 13.1986 12.9874 13.2344 12.7936 13.1224C11.9239 12.6207 11.2202 11.6664 10.9671 10.6494C10.8011 9.98183 10.809 9.04995 10.9869 8.4048C11.2043 7.60285 11.7578 6.7561 12.3785 6.27672L12.5683 6.13335L12.3232 5.81078C11.742 5.04915 11.0225 4.59665 10.1171 4.41745C9.66249 4.32784 9.12086 4.33232 8.74923 4.42193Z" fill="#376FE3"/>
</svg>

<svg width="36" height="18" fill="none" xmlns="http://www.w3.org/2000/svg"><path d="M9.156.09c-.798.224-1.632.873-2.083 1.635-.42.703-.68 1.667-.609 2.258l.024.193.3-.027c.763-.081 1.51-.551 2.056-1.304.494-.681.834-1.685.834-2.469V0l-.106.004c-.064 0-.25.04-.416.086zM23.515 1.33c-.154.032-.356.234-.439.435-.071.18-.075.457-.075 7.728v7.55l.083.197a.819.819 0 0 0 .21.282c.249.17.454.103 1.201-.399.226-.152.416-.278.424-.278.007 0 .154-.094.324-.206.17-.116.7-.466 1.178-.78.478-.308 1.174-.765 1.542-1.007l1.166-.762c1.411-.923 1.815-1.187 1.957-1.277a475.818 475.818 0 0 1 2.78-1.815c1.727-1.106 1.786-1.16 1.786-1.59 0-.35-.079-.434-.87-.94-.36-.229-.7-.453-.759-.498a.563.563 0 0 0-.126-.085c-.012 0-.135-.076-.269-.17-.273-.188-1.091-.726-2.503-1.644-1.035-.677-1.707-1.111-2.466-1.613a136.62 136.62 0 0 1-1.447-.941c-.348-.229-1.06-.69-1.582-1.03a181.5 181.5 0 0 1-1.226-.807c-.462-.31-.672-.394-.889-.35zm1.95 2.97c.952 1.072 2.363 2.653 3.134 3.518.771.86 1.4 1.59 1.4 1.617 0 .027-.459.56-1.016 1.183-.562.623-1.918 2.141-3.017 3.378a871.217 871.217 0 0 1-2.186 2.446l-.186.197V9.435c0-6.832.004-7.204.067-7.146.04.036.85.941 1.803 2.012zm.13-1.083c.213.143.648.43.964.636l1.028.672c.25.166.712.466 1.028.672.316.206.716.466.89.582.174.117.774.507 1.336.874.557.363 1.016.672 1.016.69 0 .013-.316.385-.7.82l-.704.797-2.668-3.001c-1.467-1.65-2.65-2.998-2.625-3.002.02 0 .217.116.434.26zm7.223 4.73c.565.373 1.352.888 1.798 1.17.226.143.416.278.423.296.012.013-.217.188-.506.376-.284.193-.68.453-.877.583-.194.13-.443.29-.554.358-.107.067-.296.193-.419.273a1.438 1.438 0 0 1-.253.153c-.016 0-.376-.386-.795-.86l-.767-.86.76-.865c.419-.475.778-.865.794-.865.02 0 .198.107.396.242zm-1.66 2.743c.386.43.699.802.699.82 0 .035-.348.277-.91.631-.142.09-.557.363-.928.605-.368.242-1.206.784-1.859 1.21-.652.425-1.28.833-1.395.914a2.284 2.284 0 0 1-.226.139 5.83 5.83 0 0 0-.383.25c-.479.332-.988.65-1.004.632-.016-.018 5.27-5.99 5.301-5.99.004 0 .32.354.704.789zM8.75 4.422c-.317.076-.7.22-1.262.47-.783.35-.969.359-1.652.054-1.12-.493-1.586-.6-2.214-.52-1.297.175-2.44 1.094-3.053 2.46-.383.865-.616 2.19-.56 3.217.098 1.774.628 3.683 1.442 5.197.119.22.253.457.297.524a11.9 11.9 0 0 0 1.11 1.523c.716.744 1.396.842 2.424.345.735-.354.826-.376 1.53-.372.688 0 .751.018 1.404.332.873.43 1.53.43 2.174.009.704-.462 1.917-2.424 2.404-3.885.193-.577.193-.542 0-.654-.87-.501-1.574-1.456-1.827-2.473-.166-.667-.158-1.599.02-2.244.217-.802.77-1.649 1.392-2.128l.19-.144-.246-.322c-.581-.762-1.3-1.214-2.206-1.394-.455-.09-.996-.085-1.368.005z" fill="#376FE3"/></svg>
